X: 1
T: The Bride's Favourite
R: jig
M: 6/8
L: 1/8
K: Gmaj
G3 BAB | GBd gdB | AFD cBA | GBd gdB |
G3 B3 | GBd gdB | AFD cBA |1 AGF G2 D :|2 AGF GBd ||
g2 a f2 a | gdB GBd | g3 fed | egf e2 f |
g3 gaf | gdB GBd | AFD cBA |1 AGF GBd :|2 AGF G2 D ||
GBd g3 | edc BcA | GBd g2 g | faf g2 a |
bgb afa | g3 fdf | ed^c def | gaf gdB :|


Tune 3746	Setting 23253

